Yosa-Max-Dark/places/16x16/folder-mega.svg

<?xml version="1.0" encoding="UTF-8"?>
<svg id="svg2" style="enable-background:new" version="1.1" viewBox="0 0 16.0002 16" xmlns="http://www.w3.org/2000/svg">
 <path id="path4163" d="m8.0001002 1a7.0000002 7.0000002 0 0 0-7.0000002 7.0000002 7.0000002 7.0000002 0 0 0 7.0000002 6.9999998 7.0000002 7.0000002 0 0 0 6.9999998-6.9999998 7.0000002 7.0000002 0 0 0-6.9999998-7.0000002zm-4.6666668 3.5000001h2.1100261l2.5566407 2.7275391 2.5566408-2.7275391h2.110026v6.9999999h-2.333333v-3.3837888l-2.3333338 2.3333328-2.3333334-2.3333328v3.3837888h-2.3333334z" style="enable-background:new;fill:#dfdfdf"/>
</svg>

<?xml version="1.0" encoding="UTF-8" standalone="no"?>
<svg
   xmlns:dc="http://purl.org/dc/elements/1.1/"
   xmlns:cc="http://creativecommons.org/ns#"
   xmlns:rdf="http://www.w3.org/1999/02/22-rdf-syntax-ns#"
   xmlns:svg="http://www.w3.org/2000/svg"
   xmlns="http://www.w3.org/2000/svg"
   height="100%"
   width="100%"
   version="1.1"
   id="svg2"
   style="enable-background:new"
   viewBox="0 0 16.0002 16">
  <metadata
     id="metadata14">
    <rdf:RDF>
      <cc:Work
         rdf:about="">
        <dc:format>image/svg+xml</dc:format>
        <dc:type
           rdf:resource="http://purl.org/dc/dcmitype/StillImage" />
        <dc:title></dc:title>
      </cc:Work>
    </rdf:RDF>
  </metadata>
  <defs
     id="defs12" />
  <path
     id="path4163"
     d="M 8.0001002,1 A 7.0000002,7.0000002 0 0 0 1.0001,8.0000002 7.0000002,7.0000002 0 0 0 8.0001002,15 7.0000002,7.0000002 0 0 0 15.0001,8.0000002 7.0000002,7.0000002 0 0 0 8.0001002,1 Z M 3.3334334,4.5000001 H 5.4434595 L 8.0001002,7.2275392 10.556741,4.5000001 h 2.110026 V 11.5 H 12.201923 11.5001 10.333434 V 8.1162112 L 8.0001002,10.449544 5.6667668,8.1162112 V 11.5 H 4.5001001 3.3334334 Z"
     style="opacity:1;fill:#dfdfdf;fill-opacity:1;stroke:none;stroke-width:0.06324556;stroke-linecap:square;stroke-linejoin:miter;stroke-miterlimit:4;stroke-dasharray:none;stroke-dashoffset:0;stroke-opacity:1;enable-background:new" />
</svg>
